X: 41514
T: Ukrainian, The
R: polka
M: 2/4
K: Gminor
G2 BG|(d2 G2)|^FA (dF)|A2 G2|
GA B/A/B/G/|(dB AG)|^FA dF|A2 G2|
B2 dB|(f2 d2)|AA (fe)|dd (cA)|
GA (BG)|dB (AG)|^FA dF|A2 G2|
(G/^F/G/A/) BB|AA G2|(B/A/B/c/) dd|ce d2|
g2 dA|B(B/A/) G2|^FA dF|(G/^F/G/A/) Bd|
g2 dA|B(B/A/) G2|^FA dF|G(G/^F/) G2|

